X: 041818
T: Dowser's Favorite
T: Rogha an Choll\'ora
S: B.Breathnach:"Ceol Rince na hEireann" IV/207 
Z: B.Black
L: 1/8
M: 4/4
R: reel
K: G
dgeB dBAB|GABG EDB,D|(3DDD GB cBAG|FGAB cAFD|
dgeB dBAB|G2 BG EDB,D|GDB,D GBdB|(3cBA FA G2 Bc :|
dB (3BBB gdBd|dB (3BBB gdBd|(3DDD GB cBAG|FGAB cedc|
dB (3BBB gdBd|dB (3BBB gdBd|GDB,D GBdB|1 (3cBA FA G2 Bc :|2\
(3cBA FA G4 ||
